Adwaita++/status/16/airplane-mode-disabled.svg

<svg height="16" width="16" xmlns="http://www.w3.org/2000/svg">
  <g fill="#474747">
    <path d="m15 8c0 .55-.45 1-1 1h-1.6l-6.19-6.19-.24-.75c-.27-1.05-.27-1.06.53-1.06.43 0 .43.01.72.5l3.68 5.5h3.1c.55 0 1 .44 1 1zm-4.62 1.78-3.16 4.72c-.27.45-.29.5-.66.5h-.06c-.8 0-.78-.04-.53-1.03l1.62-4.97h-4.5l-1.22 1.78c-.14.21-.12.22-.34.22h-.22c-.43 0-.28-.44-.28-.44l.28-2.56-.28-2.57s-.14-.43.25-.43h.25c.21 0 .2.01.34.22l1.22 1.78h4.5z"/>
    <path d="m15.06 13.65-12.72-12.72-1.41 1.41 12.72 12.72z"/>
  </g>
</svg>

<svg xmlns="http://www.w3.org/2000/svg" width="16" height="16" version="1.1">
 <path style="fill:#474747" d="M 15,8 C 15,8.55 14.55,9 14,9 H 12.4 L 6.21,2.81 5.97,2.06 C 5.7,1.01 5.7,1 6.5,1 6.93,1 6.93,1.01 7.22,1.5 L 10.9,7 H 14 C 14.55,7 15,7.44 15,8 Z M 10.38,9.78 7.22,14.5 C 6.95,14.95 6.93,15 6.56,15 H 6.5 C 5.7,15 5.72,14.96 5.97,13.97 L 7.59,9 H 3.09 L 1.87,10.78 C 1.73,10.99 1.75,11 1.53,11 H 1.31 C 0.88,11 1.03,10.56 1.03,10.56 L 1.31,8 1.03,5.43 C 1.03,5.43 0.89,5 1.28,5 H 1.53 C 1.74,5 1.73,5.01 1.87,5.22 L 3.09,7 H 7.59 Z"/>
 <path style="fill:#474747" d="M 15.06,13.65 2.34,0.93 0.93,2.34 13.65,15.06 Z"/>
</svg>
